icons/art/art_edit_m_white.svg

<svg width="96" height="96" viewBox="0 0 96 96" xmlns="http://www.w3.org/2000/svg"><g fill="none" fill-rule="evenodd"><path d="M0 0h96v96H0z"/><path d="M81.037 82.394c0 2.52-2.05 4.569-4.569 4.569H13.606a4.574 4.574 0 0 1-4.569-4.569V19.533c0-2.52 2.05-4.569 4.569-4.569h52.998v-1H13.606a5.576 5.576 0 0 0-5.569 5.569v62.861a5.575 5.575 0 0 0 5.569 5.569h62.861a5.575 5.575 0 0 0 5.569-5.569V41.562h-1v40.832h.001z" fill="#FFF"/><path fill="#FFF" opacity=".3" d="M31.037 63.478v8.485h8.485l36.77-36.769-8.486-8.486zM73.463 21.052l5.657-5.656 8.485 8.485-5.657 5.657zM55 28H17v5h33zM43 40H17v5h21z"/></g></svg>

<?xml version="1.0" encoding="UTF-8"?>
<svg width="96px" height="96px" viewBox="0 0 96 96" version="1.1" xmlns="http://www.w3.org/2000/svg" xmlns:xlink="http://www.w3.org/1999/xlink">
    <!-- Generator: Sketch 48.2 (47327) - http://www.bohemiancoding.com/sketch -->
    <title>art_edit_m_white</title>
    <desc>Created with Sketch.</desc>
    <defs></defs>
    <g id="mobile" stroke="none" stroke-width="1" fill="none" fill-rule="evenodd" transform="translate(-1708.000000, -1203.000000)">
        <g id="Headings" transform="translate(64.000000, 77.000000)"></g>
        <g id="art_edit__m__white" transform="translate(1708.000000, 1203.000000)">
            <g id="Group">
                <rect id="Rectangle-path" x="0" y="0" width="96" height="96"></rect>
                <path d="M81.037,82.394 C81.037,84.914 78.987,86.963 76.468,86.963 L13.606,86.963 C11.086,86.963 9.037,84.913 9.037,82.394 L9.037,19.533 C9.037,17.013 11.087,14.964 13.606,14.964 L66.604,14.964 L66.604,13.964 L13.606,13.964 C10.535,13.964 8.037,16.463 8.037,19.533 L8.037,82.394 C8.037,85.465 10.535,87.963 13.606,87.963 L76.467,87.963 C79.538,87.963 82.036,85.465 82.036,82.394 L82.036,41.562 L81.036,41.562 L81.036,82.394 L81.037,82.394 Z" id="Shape" fill="#FFFFFF"></path>
                <polygon id="Shape" fill="#FFFFFF" opacity="0.3" points="31.037 63.478 31.037 71.963 39.522 71.963 76.292 35.194 67.806 26.708"></polygon>
                <rect id="Rectangle-path" fill="#FFFFFF" opacity="0.3" transform="translate(80.533600, 22.466517) rotate(-45.000000) translate(-80.533600, -22.466517) " x="76.5336384" y="16.4665747" width="7.99992328" height="11.9998849"></rect>
                <polygon id="Shape" fill="#FFFFFF" opacity="0.3" points="55 28 17 28 17 33 50 33"></polygon>
                <polygon id="Shape" fill="#FFFFFF" opacity="0.3" points="43 40 17 40 17 45 38 45"></polygon>
            </g>
        </g>
    </g>
</svg>
